icon-svg/rooms-garage.svg

<?xml version="1.0" encoding="UTF-8"?>
<svg width="32px" height="32px" viewBox="0 0 32 32" version="1.1" fill="#44739e" xmlns="http://www.w3.org/2000/svg" xmlns:xlink="http://www.w3.org/1999/xlink">
            <path d="M27.7810036,5.73796252 C28.0739954,6.03096433 28.0729954,6.53896747 27.7780037,6.96097008 L23.2741305,13.4100099 C22.8731418,13.9850135 22.1121632,14.1510145 21.7121745,13.752012 L20.7732009,12.8120062 L19.6952313,13.8900129 L18.1302754,12.3260032 L19.208245,11.2479965 L18.2692714,10.3079907 C17.8692827,9.90798827 18.035278,9.14698358 18.6102618,8.7459811 L25.0590803,4.24195328 C25.4810684,3.94795147 25.990054,3.94695146 26.2830458,4.23995327 L27.7810036,5.73796252 Z M11.5441608,17.3474342 L14.6730727,20.4774535 L7.47327545,27.677498 C7.04328755,28.1075007 6.33930738,28.1075007 5.90831951,27.677498 L4.34436355,26.1124883 C3.91337569,25.6824857 3.91337569,24.9784813 4.34436355,24.5474787 L11.5441608,17.3474342 Z M27.6560071,24.6774795 C28.086995,25.1084821 28.086995,25.8134865 27.6560071,26.2424891 L26.2430469,27.6564979 C26.028053,27.8714992 25.744061,27.9794999 25.4610689,27.9794999 C25.1770769,27.9794999 24.8930849,27.8714992 24.677091,27.6564979 L11.181471,14.1594145 C9.57351631,14.7924184 7.68956936,14.6004173 6.25460976,13.585411 C4.42466129,12.292403 3.71168137,10.1653899 4.1046703,8.21737783 C4.18666799,7.81537535 4.6976536,7.67437448 4.98764544,7.96537628 L7.02658802,10.0043889 C7.43657648,10.4143914 8.10655761,10.4143914 8.5155461,10.0043889 L10.0055041,8.51537967 C10.4154926,8.10637715 10.4154926,7.43637301 10.0055041,7.02637048 L7.96956147,4.99035791 C7.67556975,4.69635609 7.82456555,4.18335292 8.23155409,4.10235242 C9.89750718,3.77035037 11.6924566,4.24535331 12.9834203,5.53736128 C14.5093773,7.06337071 14.8943665,9.28938445 14.1563873,11.1783961 L27.6560071,24.6774795 Z"></path>
</svg>

<svg xmlns="http://www.w3.org/2000/svg" fill="#44739e" viewBox="0 0 24 24"><path d="M27.781 5.738c.293.293.292.801-.003 1.223l-4.5039 6.449c-.401.575-1.162.741-1.562.342l-.9389-.94-1.078 1.078-1.565-1.564 1.078-1.078-.939-.94c-.4-.4-.234-1.161.341-1.562l6.4489-4.504c.422-.294.931-.295 1.224-.002zM11.5442 17.3474l3.1289 3.13-7.1998 7.2001c-.43.43-1.134.43-1.565 0l-1.564-1.565c-.431-.43-.431-1.134 0-1.565zm16.1118 7.33c.431.431.431 1.136 0 1.565l-1.413 1.4141c-.215.215-.499.323-.782.323-.284 0-.568-.108-.784-.323l-13.4955-13.497c-1.608.633-3.492.441-4.9269-.574-1.83-1.2931-2.543-3.4201-2.15-5.3681.082-.402.593-.543.883-.252l2.039 2.039c.41.41 1.08.41 1.489 0l1.4899-1.489c.41-.409.41-1.079 0-1.489l-2.036-2.036c-.294-.294-.145-.807.262-.888 1.666-.332 3.461.143 4.752 1.435 1.5259 1.526 1.9109 3.752 1.1729 5.641z"/></svg>
